X:1
T:Title
%%score 1 2 3 4
L:1/8
Q:1/4=180
M:4/4
K:G
V:1 treble nm="Grand Piano"
V:2 treble nm="Grand Piano"
V:3 bass nm="Grand Piano, Melody"
V:4 bass nm="Grand Piano"
V:1
 z4 G4 | B2 B2 d2 B2 | A4 d4 | B2 B2 e2 d2 | B8 | z4 B4 | d2 d2 B2 A2 | G3 A B2 d2 | d4 d4 | %9
 B2 d2 c2 B2 | A4 B4 | d2 B2 e2 d2 | d8 |] %13
V:2
 z4 G4 | D2 D2 G2 B2 | A4 A4 | B2 G2 AGFE | D8 | z4 G4 | G2 G2 B2 A2 | G3 F E2 D2 | D4 G4 | %9
 G2 B2 BA G2 | A4 G4 | B2 G2 G2 F2 | G8 |] %13
V:3
 z4 G,4 | B,2 D2 B,2 G,2 | A,4 A,4 | B,2 D2 CB, A,2 | G,8 | z4 G,4 | B,2 B,2 D2 D2 | %7
 B,3 A, G,2 B,2 | A,4 B,4 | G,2 D,2 G,A,B,[K:treble]C | D4 D4 | B,2 D2 CB, A,2 | G,8 |] %13
V:4
 z4 G,4 | G,2 G,2 G,2 E,2 | D,4 D,4 | G,2 G,2 C,2 D,2 | G,,8 | z4 G,4 | G,2 G,2 D,2 D,2 | G,6 G,2 | %8
 D,4 G,4 | B,2 A,2 G,F, E,2 | D,4 D,4 | G,2 G,2 C,2 D,2 | G,,8 |] %13

